X:23
T:Valse a Hipolyte
R:valse
C:trad.
A:Morvan
O:France
M:3/4
L:1/4
Q:1/4=195
K:C
e2f|e2d|cBA|A2G|d2c|d2g|G A/2B/2c/2d/2|e2c|e2f|e2d|cBA|A2G|d2e|dGA|Bcd|c3:|
|:Gce|g a/2g/2e/2c/2|Gce|g a/2g/2e/2c/2|GBd|fdf|ag^f|g3|
Gce|g a/2g/2e/2c/2|Gce|g a/2g/2e/2c/2|GBd|fdB|GAB|c3:||
